resources/svg/info-circle.svg

<svg width="15" height="15" viewBox="0 0 15 15" fill="none" xmlns="http://www.w3.org/2000/svg">
<path fill-rule="evenodd" clip-rule="evenodd" d="M15 7.5C15 11.6421 11.6421 15 7.5 15C3.35786 15 0 11.6421 0 7.5C0 3.35786 3.35787 0 7.5 0C11.6421 0 15 3.35786 15 7.5ZM7 4.99999V3.98999H8V4.99999H7ZM8 6.99999V9.99999H9V11H6V9.99999H7V7.99999H6V6.99999H8Z" fill="black"/>
</svg>

<svg viewBox="0 0 15 15" fill="none" xmlns="http://www.w3.org/2000/svg" fill="currentColor"><path fill-rule="evenodd" clip-rule="evenodd" d="M15 7.5a7.5 7.5 0 11-15 0 7.5 7.5 0 0115 0zM7 5V3.99h1V5H7zm1 2v3h1v1H6v-1h1V8H6V7h2z" fill="currentColor"/></svg>
